X:8784
T:L'anneau
R:branle
C:trad.
A:Alsace
O:France
Z:S. Piron
M:4/4
L:1/8
Q:1/4=115
K:C
A|Ac BA G2G2|ce ed e3 A|Ac BA G2G2|ce ed e2 cd|e2 ef e2 dc|
d2 df eA AB|A2 GF G2 Bd|c2B2A4||


